actions/22x22-light/tools-check-spelling.svg

<svg viewBox="0 0 22 22" xmlns="http://www.w3.org/2000/svg"><path d="m10.146484 3-5.2167965 14h1.6875l1.6699219-4.429688h5.5605466l1.535156 4.429688h1.6875l-4.929687-14zm1.015625 1.6113281 2.128907 6.6738279h-4.4863285z" fill="#4d4d4d"/><path d="m3 18v1h16v-1z" fill="#2ecc71"/></svg>

<svg xmlns="http://www.w3.org/2000/svg" viewBox="0 0 22 22">
  <defs id="defs3051">
    <style type="text/css" id="current-color-scheme">
      .ColorScheme-Text {
        color:#4d4d4d;
      }
      </style>
  </defs>
 <path 
     style="fill:currentColor;fill-opacity:1;stroke:none" 
     d="M 10.146484 3 L 4.9296875 17 L 6.6171875 17 L 8.2871094 12.570312 L 13.847656 12.570312 L 15.382812 17 L 17.070312 17 L 12.140625 3 L 10.146484 3 z M 11.162109 4.6113281 L 13.291016 11.285156 L 8.8046875 11.285156 L 11.162109 4.6113281 z "
     class="ColorScheme-Text"
     />
 <path 
     style="fill:#2ecc71;fill-opacity:1;stroke:none" 
     d="M 3 18 L 3 19 L 19 19 L 19 18 L 3 18 z "
     />
</svg>
